!!!OTL: VOM HIMMEL HOCH DA KOMM ICH HER
!!!ARE: Europa, Mitteleuropa, Deutschland
!!!SCT: E1928
!!!YEM: Copyright 1995, estate of Helmut Schaffrath.
**kern
*ICvox
*Ivox
*M4/4
*k[]
*C:
{8cc
=1
4b
4a
4b
4g
=2
4a
4b
4cc
8r}
{8cc
=3
4cc
4g
4g
4e
=4
4g
4f
4e
8r}
{8e
=5
4a
4a
4g
4b
=6
4cc
4a
4g
8r}
{8cc
=7
4b
4a
4g
4g
=8
8f
8e
4d
4c
8r}
==
!!!AGN: geistlich, Fest - Lied, Weihnachten; Kinder - Lied
!!!ONB: ESAC (Essen Associative Code) Database: ERK3
!!!AMT: simple quadruple
!!!AIN: vox
!!!EED: Helmut Schaffrath
!!!EEV: 1.0
*-
